icon-themes/sifr_svg/cmd/sc_tablemodefixprop.svg

<svg viewBox="0 0 16 16" xmlns="http://www.w3.org/2000/svg"><path d="m1 1v7h2v-2h3v2h1v-2h3v2h1v-2h3v2h2v-7zm2 2h3v2h-3zm4 0h3v2h-3zm4 0h3v2h-3zm-4.5 6a1.5 1.5 0 0 0 -1.5 1.5 1.5 1.5 0 0 0 1.5 1.5 1.5 1.5 0 0 0 1.5-1.5 1.5 1.5 0 0 0 -1.5-1.5zm3.5 0-4 6v1h1l4-6v-1zm-9 1v6h2v-2h1v-2h-1v-2zm13 0v2h-1v2h1v2h2v-6zm-3.5 3a1.5 1.5 0 0 0 -1.5 1.5 1.5 1.5 0 0 0 1.5 1.5 1.5 1.5 0 0 0 1.5-1.5 1.5 1.5 0 0 0 -1.5-1.5z" fill="#555753"/></svg>

<svg xmlns="http://www.w3.org/2000/svg" viewBox="0 0 16 16">
  <path
     style="fill:#555753"
     d="M 1 1 L 1 8 L 3 8 L 3 6 L 6 6 L 6 8 L 7 8 L 7 6 L 10 6 L 10 8 L 11 8 L 11 6 L 14 6 L 14 8 L 16 8 L 16 1 L 1 1 z M 3 3 L 6 3 L 6 5 L 3 5 L 3 3 z M 7 3 L 10 3 L 10 5 L 7 5 L 7 3 z M 11 3 L 14 3 L 14 5 L 11 5 L 11 3 z M 6.5 9 A 1.5 1.5 0 0 0 5 10.5 A 1.5 1.5 0 0 0 6.5 12 A 1.5 1.5 0 0 0 8 10.5 A 1.5 1.5 0 0 0 6.5 9 z M 10 9 L 6 15 L 6 16 L 7 16 L 11 10 L 11 9 L 10 9 z M 1 10 L 1 16 L 3 16 L 3 14 L 4 14 L 4 12 L 3 12 L 3 10 L 1 10 z M 14 10 L 14 12 L 13 12 L 13 14 L 14 14 L 14 16 L 16 16 L 16 10 L 14 10 z M 10.5 13 A 1.5 1.5 0 0 0 9 14.5 A 1.5 1.5 0 0 0 10.5 16 A 1.5 1.5 0 0 0 12 14.5 A 1.5 1.5 0 0 0 10.5 13 z "
     />
</svg>
